!!!!SEGMENT: pl-wumfc--r281_paderewski-ignacy-jan--instrumental-piece.krn
!!!cenid: 18xx:3159
!!!COM: Paderewski, Ignacy Jan
!!!COM-rismID: pe30029943
!!!CDT: 1860/11/18-1941/06/29
!!!CNT: Polish
!!!OTL: [Instrumental piece]
!!!PDT:
!!!AGN:
!!!SMS-siglum: PL-Wumfc
!!!SMS-shelfmark: R281
!!!SMS-shelfwork: W
!!!SMS-variant:
!!!SMS-altvar:
!!!NIFC-rismSourceID: 1001158932
!!!NIFC-islandoraID: pl-wumfc:413
!!!URL-pdf-islandora: https://repozytorium.nifc.pl/islandora/object/pl-wumfc%3A413/datastream/PDF/view
!!!URL-scan: https://polish.musicsources.pl/pl/lokalizacje/galeria/rekopisy/4701 @EN{Scan on Polish Music Sources Website} @PL{Skany w portalu Dziedzictwo Muzyki Polskiej w otwartym dostępie}
!!!ONB-nifc:
!!!OMD: Allegretto non troppo
!!!AIN: 1 cbass 1 cello 2 clars 2 cor 2 fagot 2 flt 2 oboe 1 timpa 2 tromb 2 tromp 1 viola 2 violn
!!!key: B-
**kern	**kern	**kern	**kern	**kern	**kern	**kern	**kern	**kern	**kern	**kern	**kern	**kern	**kern	**kern	**kern	**kern	**kern	**kern	**kern
*group8	*group8	*group8	*group8	*group8	*group8	*group7	*group7	*group6	*group6	*group5	*group5	*group4	*group4	*group3	*group3	*group2	*group2	*group1	*group1
*	*	*	*	*	*	*I""Tromboni	*	*I""Corni in F	*	*I""Trombi in F	*	*I""Fagotti	*	*I""Clarinetti in B.	*	*I""Oboi	*	*I""Flauti	*
*part20	*part19	*part18	*part17	*part16	*part15	*part14	*part13	*part12	*part11	*part10	*part9	*part8	*part7	*part6	*part5	*part4	*part3	*part2	*part1
*staff20	*staff19	*staff18	*staff17	*staff16	*staff15	*staff14	*staff13	*staff12	*staff11	*staff10	*staff9	*staff8	*staff7	*staff6	*staff5	*staff4	*staff3	*staff2	*staff1
*ICstr	*ICstr	*ICstr	*ICstr	*ICstr	*ICidio	*ICbras	*ICbras	*ICbras	*ICbras	*ICbras	*ICbras	*ICww	*ICww	*ICww	*ICww	*ICww	*ICww	*ICww	*ICww
*Icbass	*Icello	*Iviola	*Ivioln	*Ivioln	*Itimpa	*Itromb	*Itromb	*Icor	*Icor	*Itromp	*Itromp	*Ifagot	*Ifagot	*Iclars	*Iclars	*Ioboe	*Ioboe	*Iflt	*Iflt
*I"Basſo.	*I"Cello.	*I"Alto	*I"Violino II	*I"Violino Io	*I"Tympani in B F	*	*	*	*	*	*	*	*	*	*	*	*	*	*
*clefF4	*clefF4	*clefC3	*clefG2	*clefG2	*clefG2	*clefG2	*clefF4	*clefG2	*clefG2	*clefG2	*clefG2	*clefF4	*clefF4	*clefG2	*clefG2	*clefG2	*clefG2	*clefG2	*clefG2
*ITrd0c0	*	*	*	*	*	*	*	*ITrd4c7	*ITrd4c7	*ITrd4c7	*ITrd4c7	*	*	*ITrd1c2	*ITrd1c2	*	*	*	*
*k[b-e-]	*k[b-e-]	*k[b-e-]	*k[b-e-]	*k[b-e-]	*k[b-e-]	*k[b-e-]	*k[b-e-]	*k[b-e-]	*k[b-e-]	*k[b-e-]	*k[b-e-]	*k[b-e-]	*k[b-e-]	*k[b-e-]	*k[b-e-]	*k[b-e-]	*k[b-e-]	*k[b-e-]	*k[b-e-]
*B-:	*B-:	*B-:	*B-:	*B-:	*B-:	*B-:	*B-:	*B-:	*B-:	*B-:	*B-:	*B-:	*B-:	*B-:	*B-:	*B-:	*B-:	*B-:	*B-:
*M2/4	*M2/4	*M2/4	*M2/4	*M2/4	*M2/4	*M2/4	*M2/4	*M2/4	*M2/4	*M2/4	*M2/4	*M2/4	*M2/4	*M2/4	*M2/4	*M2/4	*M2/4	*M2/4	*M2/4
=1	=1	=1	=1	=1	=1	=1	=1	=1	=1	=1	=1	=1	=1	=1	=1	=1	=1	=1	=1
4BB-\	4BB-\	4B-/	4d/	4f/	2r	2r	2r	2r	2F/ [2B-	2r	2r	2r	2r	2r	2r	2r	2r	2r	2r
8BB-\L	8BB-\L	8B-/L	8d/L	8f/L	.	.	.	.	.	.	.	.	.	.	.	.	.	.	.
8BB-\J	8BB-\J	8B-/J	8d/J	8f/J	.	.	.	.	.	.	.	.	.	.	.	.	.	.	.
=2	=2	=2	=2	=2	=2	=2	=2	=2	=2	=2	=2	=2	=2	=2	=2	=2	=2	=2	=2
4E-\	4E-\	4G/	4e-/	4g/	2r	2r	2r	2r	2G/ 2B-]	2r	2r	2r	2r	2r	2r	2r	2r	2r	2r
4C\	4C\	4G/	4e-/	4g/	.	.	.	.	.	.	.	.	.	.	.	.	.	.	.
=3	=3	=3	=3	=3	=3	=3	=3	=3	=3	=3	=3	=3	=3	=3	=3	=3	=3	=3	=3
2F\	2FF\	8F/L	2e-/	(>8a/L	2r	2r	2r	2r	8F/L	2r	2r	2r	2r	2r	2r	2r	2r	2r	2r
.	.	8G/	.	8b-/	.	.	.	.	8G/J	.	.	.	.	.	.	.	.	.	.
.	.	8A/	.	8cc/	.	.	.	.	4A/	.	.	.	.	.	.	.	.	.	.
.	.	8F/J	.	8a/J	.	.	.	.	.	.	.	.	.	.	.	.	.	.	.
=4	=4	=4	=4	=4	=4	=4	=4	=4	=4	=4	=4	=4	=4	=4	=4	=4	=4	=4	=4
.	.	.	.	8qa/	.	.	.	.	.	.	.	.	.	.	.	.	.	.	.
2BB-\	2BB-\	2F/	8e-/L	8g/L	2r	2r	2r	2r	4B-/	2r	2r	2r	2r	2r	2r	2r	2r	2r	2r
.	.	.	8d/J	8f/J)	.	.	.	.	.	.	.	.	.	.	.	.	.	.	.
.	.	.	4d/	4f/	.	.	.	.	4B-/	.	.	.	.	.	.	.	.	.	.
=5	=5	=5	=5	=5	=5	=5	=5	=5	=5	=5	=5	=5	=5	=5	=5	=5	=5	=5	=5
*	*	*	*	*	*	*	*	*	*	*	*	*	*	*rep	*	*rep	*	*	*
2r	2r	(2d\	(>2f/	[2b-\	2r	2ryy	2ryy	2ryy	2ryy	2ryy	2ryy	2ryy	4d\	2f/	2f/	(4ff/	(4ff/	2ryy	2ryy
.	.	.	.	.	.	.	.	.	.	.	.	.	8B-\L	.	.	8dd/L	8dd/L	.	.
.	.	.	.	.	.	.	.	.	.	.	.	.	8A\J	.	.	8cc/J	8cc/J	.	.
*	*	*	*	*	*	*	*	*	*	*	*	*	*	*Xrep	*	*Xrep	*	*	*
=6	=6	=6	=6	=6	=6	=6	=6	=6	=6	=6	=6	=6	=6	=6	=6	=6	=6	=6	=6
*	*	*	*	*	*	*	*	*	*	*	*	*	*	*rep	*	*rep	*	*	*
2r	2r	2G/)	2g/)	2b-\]	2r	2ryy	2ryy	2ryy	2ryy	2ryy	2ryy	2ryy	4G\	2g/	2g/	(4b-/)	(>4b-/)	2ryy	2ryy
.	.	.	.	.	.	.	.	.	.	.	.	.	8A\L	.	.	8cc/L	8cc/L	.	.
.	.	.	.	.	.	.	.	.	.	.	.	.	8B-\J	.	.	8dd/J)	8dd/J)	.	.
*	*	*	*	*	*	*	*	*	*	*	*	*	*	*Xrep	*	*Xrep	*	*	*
=7	=7	=7	=7	=7	=7	=7	=7	=7	=7	=7	=7	=7	=7	=7	=7	=7	=7	=7	=7
*	*	*	*	*	*	*	*	*	*	*	*	*	*	*rep	*	*rep	*	*	*
2r	2r	2c\	(4g/	(4b-\	2r	2ryy	2ryy	2ryy	2ryy	2ryy	2ryy	2ryy	4c\	4g/	4g/	(8ee-/L	(8ee-/L	2ryy	2ryy
.	.	.	.	.	.	.	.	.	.	.	.	.	.	.	.	8dd/	8dd/	.	.
.	.	.	8a/L	4a\	.	.	.	.	.	.	.	.	4c\	8a/L	8a/L	8cc/	8cc/	.	.
.	.	.	8g/J)	.	.	.	.	.	.	.	.	.	.	8g/J	8g/J	8b-/J	8b-/J	.	.
*	*	*	*	*	*	*	*	*	*	*	*	*	*	*Xrep	*	*Xrep	*	*	*
=8	=8	=8	=8	=8	=8	=8	=8	=8	=8	=8	=8	=8	=8	=8	=8	=8	=8	=8	=8
*	*	*	*	*	*	*	*	*	*	*	*	*	*	*rep	*	*rep	*	*	*
!	!	!	!	!	!	!	!	!	!	!	!	!	!	!	!	!	!LO:TX:b:t=rit	!	!
2r	2r	2d\	4g/	2a\)	2r	2ryy	2ryy	2ryy	2ryy	2ryy	2ryy	2ryy	2d\	4g/	4g/	4a/	4a/	2ryy	2ryy
!	!	!	!LO:TX:a:t=rit.	!	!	!	!	!	!	!	!	!	!	!	!LO:TX:b:t=rit	!	!	!	!
.	.	.	4f#X/	.	.	.	.	.	.	.	.	.	.	4f#X/	4f#X/	4dd/)	4dd/)	.	.
*	*	*	*	*	*	*	*	*	*	*	*	*	*	*Xrep	*	*Xrep	*	*	*
=9	=9	=9	=9	=9	=9	=9	=9	=9	=9	=9	=9	=9	=9	=9	=9	=9	=9	=9	=9
!!pagebreak:original
4BB-\	4BB-\	4B-/	4d/	4f/	2ryy	2r	2r	2r	2F/	2r	2r	2r	2r	2r	2r	2r	2r	2r	2r
8BB-\L	8BB-\L	4B-/	8d/L	8f/L	.	.	.	.	.	.	.	.	.	.	.	.	.	.	.
8BB-\J	8BB-\J	.	8d/J	8f/J	.	.	.	.	.	.	.	.	.	.	.	.	.	.	.
=10	=10	=10	=10	=10	=10	=10	=10	=10	=10	=10	=10	=10	=10	=10	=10	=10	=10	=10	=10
4E-\	4E-\	4G/	4e-/	4g/	2ryy	2r	2r	2r	2G/	2r	2r	2r	2r	2r	2r	2r	2r	2r	2r
4C\	4C\	4G/	4e-/	4g/	.	.	.	.	.	.	.	.	.	.	.	.	.	.	.
=11	=11	=11	=11	=11	=11	=11	=11	=11	=11	=11	=11	=11	=11	=11	=11	=11	=11	=11	=11
2F\	2F\	8F/L	2e-/	8a/L	2ryy	2r	2r	2r	8F/L	2r	2r	2r	2r	2r	2r	2r	2r	2r	2r
.	.	8G/	.	8b-/	.	.	.	.	8G/J	.	.	.	.	.	.	.	.	.	.
.	.	8A/	.	8cc/	.	.	.	.	4A/	.	.	.	.	.	.	.	.	.	.
.	.	8F/J	.	8a/J	.	.	.	.	.	.	.	.	.	.	.	.	.	.	.
=12	=12	=12	=12	=12	=12	=12	=12	=12	=12	=12	=12	=12	=12	=12	=12	=12	=12	=12	=12
.	.	.	.	(8qa/	.	.	.	.	.	.	.	.	.	.	.	.	.	.	.
2BB-\	2BB-\	2F/	8e-/L	8g/L)	2ryy	2r	2r	2r	2d/	2r	2r	2r	2r	2ryy	2r	2r	2r	2r	2r
.	.	.	8d/J	8f/J	.	.	.	.	.	.	.	.	.	.	.	.	.	.	.
.	.	.	4d/	4f/	.	.	.	.	.	.	.	.	.	.	.	.	.	.	.
=13	=13	=13	=13	=13	=13	=13	=13	=13	=13	=13	=13	=13	=13	=13	=13	=13	=13	=13	=13
*	*	*	*	*	*	*rep	*rep	*rep	*rep	*rep	*rep	*rep	*	*	*	*	*	*	*
2r	2r	[2d\	[2f/	2a/	2ryy	2r	2r	2r	4f\	4f\	4f\	4f\	4f\	2ryy	4dd/	2r	2a/	2ryy	4aa\
.	.	.	.	.	.	.	.	.	8d/L	8d/L	8d/L	8d\L	8d\L	.	4a/	.	.	.	8ff\L
.	.	.	.	.	.	.	.	.	8c/J	8c/J	8c/J	8c\J	8c\J	.	.	.	.	.	8ee-\J
*	*	*	*	*	*	*Xrep	*Xrep	*Xrep	*Xrep	*Xrep	*Xrep	*Xrep	*	*	*	*	*	*	*
=14	=14	=14	=14	=14	=14	=14	=14	=14	=14	=14	=14	=14	=14	=14	=14	=14	=14	=14	=14
*	*	*	*	*	*rep	*rep	*rep	*rep	*rep	*rep	*rep	*rep	*	*	*	*	*	*	*
2r	2r	2d\]	2f/]	[2b-\	2r	2r	2r	2r	4B-/	4B-/	4B-/	4B-\	4B-\	2ryy	4dd/	2r	2b-/	2ryy	4aa\
.	.	.	.	.	.	.	.	.	8c/L	8c/L	8c/L	8c\L	8c\L	.	8cc/L	.	.	.	8ff\L
.	.	.	.	.	.	.	.	.	8d/J	8d/J	8d/J	8d\J	8d\J	.	8b-/J	.	.	.	8dd\J
*	*	*	*	*	*Xrep	*Xrep	*Xrep	*Xrep	*Xrep	*Xrep	*Xrep	*Xrep	*	*	*	*	*	*	*
=15	=15	=15	=15	=15	=15	=15	=15	=15	=15	=15	=15	=15	=15	=15	=15	=15	=15	=15	=15
*	*	*	*	*	*rep	*rep	*rep	*rep	*rep	*rep	*rep	*rep	*	*	*	*	*	*	*
2r	2r	2c\	8a/L	2b-\]	2r	2r	2r	2r	4c/	4c/	4c/	4c\	4c\	2ryy	8a/L	2r	2b-/	2ryy	8een\L
.	.	.	8g/	.	.	.	.	.	.	.	.	.	.	.	8g/	.	.	.	8gg\
.	.	.	8f/	.	.	.	.	.	4c/	4c/	4c/	4c\	4c\	.	8f/	.	.	.	8ff\
.	.	.	8en/J	.	.	.	.	.	.	.	.	.	.	.	8eX/J	.	.	.	8eeny\J
*	*	*	*	*	*Xrep	*Xrep	*Xrep	*Xrep	*Xrep	*Xrep	*Xrep	*Xrep	*	*	*	*	*	*	*
=16	=16	=16	=16	=16	=16	=16	=16	=16	=16	=16	=16	=16	=16	=16	=16	=16	=16	=16	=16
*	*	*^	*	*	*	*	*	*	*	*	*	*	*	*	*	*	*	*	*
*	*	*	*	*	*	*rep	*rep	*rep	*rep	*rep	*rep	*rep	*	*	*	*	*	*	*	*
!	!	!	!	!	!	!	!	!	!	!	!	!	!	!LO:TX:a:t=rit	!	!	!	!	!	!LO:TX:b:t=rit
2r	2r	2c/	2F\	2f/	4b-\	2r	2r	2r	2r	2F/	2F/	2F/	2F\	2F\	2r	2f/	2r	4b-/	2r	2dd\
!	!	!	!	!	!	!	!	!	!	!	!	!	!	!	!	!	!	!LO:TX:b:t=rit:rj	!	!
.	.	.	.	.	4a\	.	.	.	.	.	.	.	.	.	.	.	.	4a/	.	.
*	*	*	*	*	*	*Xrep	*Xrep	*Xrep	*Xrep	*Xrep	*Xrep	*Xrep	*	*	*	*	*	*	*	*
*	*	*v	*v	*	*	*	*	*	*	*	*	*	*	*	*	*	*	*	*	*
=17	=17	=17	=17	=17	=17	=17	=17	=17	=17	=17	=17	=17	=17	=17	=17	=17	=17	=17	=17
!!pagebreak:original
2C\	2C\	2G/	[>2e-/	8r	2ryy	2ryy	2ryy	2G/	[2e-\	2ryy	2ryy	2ryy	2ryy	2ryy	2ryy	2ryy	2ryy	2ryy	2ryy
.	.	.	.	(8g/L	.	.	.	.	.	.	.	.	.	.	.	.	.	.	.
.	.	.	.	8ee-/	.	.	.	.	.	.	.	.	.	.	.	.	.	.	.
.	.	.	.	8dd/J	.	.	.	.	.	.	.	.	.	.	.	.	.	.	.
=18	=18	=18	=18	=18	=18	=18	=18	=18	=18	=18	=18	=18	=18	=18	=18	=18	=18	=18	=18
2F\	8FF/L	8A/L	2e-/]	8cc/L	2ryy	2ryy	2ryy	2A/	2e-\]	2ryy	2ryy	2ryy	2ryy	2ryy	2ryy	2ryy	2ryy	2ryy	2ryy
.	8GG/J	8B-/J	.	8b-/	.	.	.	.	.	.	.	.	.	.	.	.	.	.	.
.	4AA/	4c/	.	8a/	.	.	.	.	.	.	.	.	.	.	.	.	.	.	.
.	.	.	.	8g/J)	.	.	.	.	.	.	.	.	.	.	.	.	.	.	.
=19	=19	=19	=19	=19	=19	=19	=19	=19	=19	=19	=19	=19	=19	=19	=19	=19	=19	=19	=19
4BB-\	4BB-/	4d\	4d/	4f/	2ryy	2ryy	2ryy	8B-/L	4d\	2ryy	2ryy	2ryy	2ryy	2ryy	8r	2ryy	2ryy	2ryy	2ryy
.	.	.	.	.	.	.	.	8A/J	.	.	.	.	.	.	(8ff\L	.	.	.	.
4EE-\	4E-\	4B-\	4e-/	4g/	.	.	.	4G/	4e-\	.	.	.	.	.	8ee-\	.	.	.	.
.	.	.	.	.	.	.	.	.	.	.	.	.	.	.	8b-\J	.	.	.	.
=20	=20	=20	=20	=20	=20	=20	=20	=20	=20	=20	=20	=20	=20	=20	=20	=20	=20	=20	=20
2BB-\	2BB-\	4.B-/	2d/	(8f/L	2ryy	2ryy	2ryy	2F/	2d\	2ryy	2ryy	2ryy	2ryy	2ryy	2dd\)	2ryy	2ryy	2ryy	2ryy
.	.	.	.	8g/J	.	.	.	.	.	.	.	.	.	.	.	.	.	.	.
.	.	.	.	4f/)	.	.	.	.	.	.	.	.	.	.	.	.	.	.	.
.	.	8A/	.	.	.	.	.	.	.	.	.	.	.	.	.	.	.	.	.
=21	=21	=21	=21	=21	=21	=21	=21	=21	=21	=21	=21	=21	=21	=21	=21	=21	=21	=21	=21
4.E-\	4.E-\	4G/	[2g/	8r	2ryy	2ryy	2ryy	[2G/	[2g\	2ryy	2ryy	2ryy	2ryy	2ryy	2ryy	2ryy	2ryy	2ryy	2ryy
.	.	.	.	(8g/L	.	.	.	.	.	.	.	.	.	.	.	.	.	.	.
.	.	8A/L	.	8gg/	.	.	.	.	.	.	.	.	.	.	.	.	.	.	.
8D\	8D\	8Bn/J	.	8ff/J	.	.	.	.	.	.	.	.	.	.	.	.	.	.	.
=22	=22	=22	=22	=22	=22	=22	=22	=22	=22	=22	=22	=22	=22	=22	=22	=22	=22	=22	=22
2C\	2C\	8c\L	2g/]	8ee-/L	2ryy	2ryy	2ryy	2G/]	2g\]	2ryy	2ryy	2ryy	2ryy	2ryy	2ryy	2ryy	2ryy	2ryy	2ryy
.	.	8d\	.	8dd/	.	.	.	.	.	.	.	.	.	.	.	.	.	.	.
.	.	8e-\	.	8cc/	.	.	.	.	.	.	.	.	.	.	.	.	.	.	.
.	.	8en\J	.	8b-/J)	.	.	.	.	.	.	.	.	.	.	.	.	.	.	.
=23	=23	=23	=23	=23	=23	=23	=23	=23	=23	=23	=23	=23	=23	=23	=23	=23	=23	=23	=23
4FF\	[2C/	4f\	4f/	4a/	2ryy	2ryy	2ryy	(4A/	(4g\	2ryy	2ryy	2ryy	2ryy	2ryy	8r	2ryy	2ryy	2ryy	2ryy
.	.	.	.	.	.	.	.	.	.	.	.	.	.	.	(8cc\L	.	.	.	.
4C\	.	4c\	4en/	4b-/	.	.	.	4c/)	4g\)	.	.	.	.	.	8dd\	.	.	.	.
.	.	.	.	.	.	.	.	.	.	.	.	.	.	.	8cc\J	.	.	.	.
=24	=24	=24	=24	=24	=24	=24	=24	=24	=24	=24	=24	=24	=24	=24	=24	=24	=24	=24	=24
2FF\	2C/]	2F/	8f/L	8a/L	2ryy	2ryy	2ryy	(8f/L	(8a\L	2ryy	2ryy	2ryy	2ryy	2ryy	2ff\)	2ryy	2ryy	2ryy	2ryy
.	.	.	8c/J	8g/J	.	.	.	8c/J	8g\J	.	.	.	.	.	.	.	.	.	.
.	.	.	4A/	4f/	.	.	.	4A/)	4f\)	.	.	.	.	.	.	.	.	.	.
=25	=25	=25	=25	=25	=25	=25	=25	=25	=25	=25	=25	=25	=25	=25	=25	=25	=25	=25	=25
!!pagebreak:original
*	*	*	*	*	*	*	*	*	*	*	*	*	*	*	*	*	*	*rep	*rep
4BB-\	4BB-\	4B-/	4d/	4f/	2ryy	2ryy	2BB-\	2B-/	2f\	2ryy	2ryy	2ryy	2ryy	2ryy	4dd\	4dd\	4ff\	4ff\	4ff\
8BB-\L	8BB-\L	8B-/L	8d/L	8f/L	.	.	.	.	.	.	.	.	.	.	8cc\L	8dd\L	8ff\L	8ff\L	8ff\L
8BB-\J	8BB-\J	8B-/J	8d/J	8f/J	.	.	.	.	.	.	.	.	.	.	8b-\J	8dd\J	8ff\J	8ff|J	8ff\J
*	*	*	*	*	*	*	*	*	*	*	*	*	*	*	*	*	*	*Xrep	*Xrep
=26	=26	=26	=26	=26	=26	=26	=26	=26	=26	=26	=26	=26	=26	=26	=26	=26	=26	=26	=26
*	*	*	*	*	*	*	*	*	*	*	*	*	*	*	*	*	*	*rep	*rep
4E-\	4E-\	4G/	4e-/	4g/	2ryy	2ryy	4E-\	2e-\	2g\	2ryy	2ryy	2ryy	2ryy	2ryy	4g\	4ee-\	4gg\	4gg\	4gg\
4C\	4C\	4G/	4e-/	4g/	.	.	4C\	.	.	.	.	.	.	.	4g\	4ee-\	4gg\	4gg\	4gg\
*	*	*	*	*	*	*	*	*	*	*	*	*	*	*	*	*	*	*Xrep	*Xrep
=27	=27	=27	=27	=27	=27	=27	=27	=27	=27	=27	=27	=27	=27	=27	=27	=27	=27	=27	=27
*	*	*	*	*	*	*	*	*	*	*	*	*	*	*	*	*	*	*rep	*rep
2FF\	2FF\	8F/L	2e-/	8a/L	2ryy	2ryy	2F\	2f\	2f\	2ryy	2ryy	2ryy	2ryy	2ryy	8f/L	2ee-\	8aa\L	8aa\L	8aa\L
.	.	8G/	.	8b-/	.	.	.	.	.	.	.	.	.	.	8g/J	.	8bb-\	8bb-\	8bb-\
.	.	8A/	.	8cc/	.	.	.	.	.	.	.	.	.	.	4a/	.	8ccc\	8ccc\	8ccc\
.	.	8F/J	.	8a/J	.	.	.	.	.	.	.	.	.	.	.	.	8aa\J	8aa\J	8aa\J
*	*	*	*	*	*	*	*	*	*	*	*	*	*	*	*	*	*	*Xrep	*Xrep
=28	=28	=28	=28	=28	=28	=28	=28	=28	=28	=28	=28	=28	=28	=28	=28	=28	=28	=28	=28
*	*	*	*	*	*	*	*	*	*	*	*	*	*	*	*	*	*	*rep	*rep
.	.	.	.	(8qa/	.	.	.	.	.	.	.	.	.	.	.	.	.	.	.
2BB-\	2BB-\	2F/	8e-/L	8g/L)	2ryy	2ryy	2BB-\	8e-\L	8g\L	2ryy	2ryy	2ryy	2r	2ryy	2b-\	8dd\L	8gg\L	8gg\L	8gg\L
.	.	.	8d/J	8f/J	.	.	.	8B-\J	8f\J	.	.	.	.	.	.	8dd\J	8ff\J	8ff\J	8ff\J
.	.	.	4d/	4f/	.	.	.	4B-\	4f\	.	.	.	.	.	.	4dd\	4ff\	4ff\	4ff\
*	*	*	*	*	*	*	*	*	*	*	*	*	*	*	*	*	*	*Xrep	*Xrep
=29	=29	=29	=29	=29	=29	=29	=29	=29	=29	=29	=29	=29	=29	=29	=29	=29	=29	=29	=29
2F\	2F\	2C/	2g\	2dd\	2ryy	2ryy	2ryy	2G/	2d\	2BB-/ 2B-	2G/	2ryy	4E-\	2ryy	4b-\	[2b-\	4gg\	2ryy	4ddd\
.	.	.	.	.	.	.	.	.	.	.	.	.	4c\	.	8g\L	.	8gg\L	.	8bb-\L
.	.	.	.	.	.	.	.	.	.	.	.	.	.	.	8f\J	.	8dd\J	.	8aa\J
=30	=30	=30	=30	=30	=30	=30	=30	=30	=30	=30	=30	=30	=30	=30	=30	=30	=30	=30	=30
2C\	2C\	2D/	2g\	[2ee-\	2ryy	2ryy	2C\	2c/	2e-\	2C/	2G/	2ryy	4F\	2ryy	4e-/	4b-\]	[2ee-\	2ryy	4gg\
.	.	.	.	.	.	.	.	.	.	.	.	.	4F\	.	4e-/	4cc\	.	.	8aa\L
.	.	.	.	.	.	.	.	.	.	.	.	.	.	.	.	.	.	.	8bb-\J
=31	=31	=31	=31	=31	=31	=31	=31	=31	=31	=31	=31	=31	=31	=31	=31	=31	=31	=31	=31
2F\	2F\	2G/	8f\L	2ee-\]	2ryy	2ryy	4F\	2F/	2e-\	4D/	2F/	2ryy	2B-\	2ryy	2f/	8dd\L	2ee-\_	2ryy	8bb-\L
.	.	.	8cc\	.	.	.	.	.	.	.	.	.	.	.	.	8cc\	.	.	8aa\J
.	.	.	8b-\	.	.	.	4FF\	.	.	4E-/	.	.	.	.	.	8b-\	.	.	8gg\L
.	.	.	8a\J	.	.	.	.	.	.	.	.	.	.	.	.	8a\J	.	.	8ff\J
=32	=32	=32	=32	=32	=32	=32	=32	=32	=32	=32	=32	=32	=32	=32	=32	=32	=32	=32	=32
2BB-\	2BB-\	2G/	2b-\	4ee-\	2ryy	2ryy	2BB-\	2F/	2f\	4E-/	2F/	2ryy	2r	2ryy	2f/	2b-\	4ee-\]	2ryy	4ff\
.	.	.	.	4dd\	.	.	.	.	.	4D/	.	.	.	.	.	.	4dd\	.	4bb-\
==	==	==	==	==	==	==	==	==	==	==	==	==	==	==	==	==	==	==	==
*-	*-	*-	*-	*-	*-	*-	*-	*-	*-	*-	*-	*-	*-	*-	*-	*-	*-	*-	*-
!!!system-decoration: [(s1,s2)][(s3,s4)][(s5,s6)][(s7,s8)][(s9,s10)][(s11,s12)][(s13,s14)]s15[(s16,s17,s18,s19,s20)]
!!!RDF**kern: > = above
!!!RDF**kern: < = below
!!!ENC: Berenika Jozajtis
!!!END: 2021-11-09
!!!ENC: Krzysztof Stępień
!!!END: 2021-11-13
!!!YEC: Copyright 2022 Narodowy Instytut Fryderyka Chopina (https://polishscores.org)
!!!YEM: Licence CC BY 4.0 (https://creativecommons.org/licenses/by/4.0)
